X:65
T:The Maids of Mitchelstown
M:4/4
L:1/8
R:reel
S:As played by the Bothy Band on "Out of the Wind, into the Sun"
S:Transcribed by Doug Mast.
K:Dm
| "Dm"D2 AG "Am7"EG G2 | "Dm"A2 GA "Am7"cA GE | "Dm"D2 AG "Am7"EG G2 | "Am7"Ac GE "Dm"ED cE|
|  "Dm"D2 AG "Am7"EG G2 |  "Dm"A2 GA "Am7"cA GE |  "Dm"D2 AG "Am7"EG G2 | "Am7"Ac GE  "Dm"ED D2|
|  "C"EG AB c2 BG | "D"Ad de "Gm"f2 ed | "Am"cA GE "B#maj7"F3G | "Am"Ac GE "Gm"ED D2|
|  "C"EG AB c2 BG | "D"Ad de "Gm"f2 ed | "Am"cA GE "a_7"F3G | "Am"(3ABc (3Bcd "Gm"cA GE |
| "(Descant) Dm"F3D "Am7"E4 | "Dm"DF ED "Am7"CA, A,2 | "Dm"F3D "Am7"E3F | "Am7"GA GE "Dm"ED D2 |
| "Dm"F3D "Am7"E4 | "Dm"DF ED "Am7"CA, A,2 | "Dm"F3D "Am7"E3F | "Am7"GA GE "Dm"ED D2 |
| "C"C2 AG G4 | "D"AG ^FA "Gm"G4 | "Am"EC DG, "B_"C4 | "Am"B,C DE "Gm"A,D D2 |
| "C"C2 AG G4 | "D"AG ^FA "Gm"G4 | "Am"EC DG, "B_"C4 | "Am"B,C DE "Gm"A,C EC |
